Papirus/16x16/apps/mendeley-desktop.svg

<svg xmlns="http://www.w3.org/2000/svg" width="16" height="16" version="1.1">
 <rect fill="#be212e" width="16" height="16" x="0" y="0" rx=".842"/>
 <path fill="#fff" d="m4.6074 4c-0.5222 0.0148-1.0257 0.2297-1.4121 0.5547-0.3927 0.3302-0.6734 0.7837-0.7305 1.2715-0.0285 0.2439 0.0003 0.495 0.0879 0.7265 0.0876 0.2316 0.235 0.4446 0.4317 0.6094 0.2319 0.1944 0.5226 0.3167 0.789 0.4688 0.1332 0.076 0.2588 0.161 0.3692 0.2636 0.1103 0.1027 0.2034 0.2244 0.2539 0.3614 0.0449 0.1218 0.0552 0.2515 0.0351 0.3789-0.02 0.1273-0.0702 0.2505-0.1445 0.3593-0.1487 0.2178-0.3893 0.3762-0.6523 0.461-0.3052 0.0983-0.6415 0.1028-0.9356 0.2265-0.2327 0.0979-0.4287 0.269-0.5508 0.4764-0.122 0.208-0.1703 0.453-0.1406 0.688 0.0349 0.275 0.1784 0.535 0.3926 0.73 0.2141 0.195 0.4979 0.323 0.7949 0.365 0.4355 0.062 0.9022-0.068 1.2188-0.351 0.1583-0.142 0.2783-0.318 0.3457-0.512s0.0789-0.404 0.0351-0.603c-0.0334-0.153-0.0952-0.297-0.1562-0.442-0.061-0.1447-0.1201-0.2922-0.1348-0.4471-0.026-0.2733 0.0867-0.552 0.2832-0.7578s0.4699-0.3405 0.7598-0.4004c0.187-0.0386 0.3834-0.0475 0.5722-0.0175 0.1889 0.0299 0.3724 0.0985 0.5254 0.205 0.1531 0.1066 0.2758 0.2505 0.3438 0.416 0.0679 0.1656 0.0796 0.3517 0.0254 0.5215-0.0555 0.174-0.1761 0.3239-0.2969 0.4673-0.1208 0.142-0.2466 0.286-0.3184 0.455-0.0791 0.186-0.0874 0.396-0.0332 0.589 0.0543 0.194 0.1682 0.372 0.3184 0.516 0.1661 0.159 0.3786 0.279 0.6074 0.344s0.4617 0.076 0.7012 0.076c0.2394 0 0.488-0.011 0.7168-0.076s0.4413-0.185 0.6074-0.344c0.1502-0.144 0.2641-0.322 0.3184-0.516 0.0542-0.193 0.0459-0.403-0.0332-0.589-0.0718-0.169-0.1976-0.313-0.3184-0.455-0.1208-0.1434-0.2414-0.2933-0.2969-0.4673-0.0542-0.1698-0.0425-0.3559 0.0254-0.5215 0.068-0.1655 0.1907-0.3094 0.3438-0.416 0.153-0.1065 0.3365-0.1751 0.5254-0.205 0.1891-0.03 0.3851-0.0211 0.5721 0.0175 0.29 0.0599 0.563 0.1946 0.76 0.4004 0.196 0.2058 0.309 0.4845 0.283 0.7578-0.015 0.1549-0.074 0.3024-0.135 0.4471-0.061 0.145-0.122 0.289-0.156 0.442-0.044 0.199-0.032 0.409 0.035 0.603 0.068 0.194 0.188 0.37 0.346 0.512 0.317 0.283 0.783 0.413 1.219 0.351 0.297-0.042 0.58-0.17 0.795-0.365 0.214-0.195 0.357-0.455 0.392-0.73 0.03-0.235-0.018-0.48-0.14-0.688-0.123-0.2074-0.319-0.3785-0.551-0.4764-0.294-0.1237-0.631-0.1282-0.936-0.2265-0.263-0.0848-0.503-0.2432-0.652-0.461-0.074-0.1088-0.125-0.232-0.145-0.3593-0.02-0.1274-0.009-0.2571 0.036-0.3789 0.05-0.137 0.143-0.2587 0.253-0.3614 0.111-0.1026 0.236-0.1876 0.37-0.2636 0.266-0.1521 0.557-0.2744 0.789-0.4688 0.196-0.1648 0.344-0.3778 0.431-0.6094 0.088-0.2315 0.117-0.4826 0.088-0.7265-0.057-0.4878-0.338-0.9413-0.73-1.2715-0.387-0.325-0.89-0.5399-1.412-0.5547-0.262-0.0074-0.525 0.0351-0.766 0.1289s-0.46 0.2398-0.627 0.4258c-0.1909 0.2132-0.3101 0.473-0.4199 0.7305-0.1099 0.2574-0.2126 0.5198-0.3789 0.75-0.2744 0.3794-0.7073 0.7402-1.2012 0.7402s-0.9268-0.3608-1.2012-0.7402c-0.1663-0.2302-0.269-0.4926-0.3789-0.75-0.1098-0.2575-0.229-0.5173-0.4199-0.7305-0.1665-0.186-0.3862-0.332-0.627-0.4258-0.2407-0.0938-0.5045-0.1363-0.7656-0.1289zm3.3926 3.5a0.5 0.5 0 0 1 0.5 0.5 0.5 0.5 0 0 1 -0.5 0.5 0.5 0.5 0 0 1 -0.5 -0.5 0.5 0.5 0 0 1 0.5 -0.5z"/>
</svg>

<?xml version="1.0" encoding="UTF-8" standalone="no"?>
<svg
   id="_图层_1"
   version="1.1"
   viewBox="0 0 64 64" width="16" height="16"
   sodipodi:docname="mendeley-desktop.svg"
   xml:space="preserve"
   inkscape:version="1.4 (e7c3feb100, 2024-10-09)"
   xmlns:inkscape="http://www.inkscape.org/namespaces/inkscape"
   xmlns:sodipodi="http://sodipodi.sourceforge.net/DTD/sodipodi-0.dtd"
   xmlns="http://www.w3.org/2000/svg"
   xmlns:svg="http://www.w3.org/2000/svg"><sodipodi:namedview
     id="namedview26"
     pagecolor="#505050"
     bordercolor="#eeeeee"
     borderopacity="1"
     inkscape:showpageshadow="0"
     inkscape:pageopacity="0"
     inkscape:pagecheckerboard="0"
     inkscape:deskcolor="#505050"
     inkscape:zoom="10.6875"
     inkscape:cx="32"
     inkscape:cy="29.005848"
     inkscape:window-width="1920"
     inkscape:window-height="939"
     inkscape:window-x="0"
     inkscape:window-y="34"
     inkscape:window-maximized="1"
     inkscape:current-layer="_图层_1" /><!-- Generator: Adobe Illustrator 29.0.1, SVG Export Plug-In . SVG Version: 2.1.0 Build 192)  --><defs
     id="defs6"><style
       id="style1">
      .st0 {
        fill-opacity: .5;
      }

      .st0, .st1, .st2, .st3, .st4, .st5, .st6, .st7 {
        fill: #fff;
      }

      .st8 {
        fill: #133c9a;
      }

      .st2, .st9 {
        display: none;
      }

      .st3 {
        fill-opacity: .2;
      }

      .st4 {
        fill-opacity: .9;
      }

      .st10 {
        fill: #3370ff;
      }

      .st11 {
        fill: url(#_未命名的渐变_3);
      }

      .st12 {
        fill: url(#_未命名的渐变);
      }

      .st5 {
        fill-opacity: .3;
      }

      .st6 {
        fill-opacity: 0;
      }

      .st7 {
        fill-opacity: .7;
      }

      .st13 {
        fill: #00d6b9;
      }

      .st14 {
        fill: url(#_未命名的渐变_2);
      }
    </style><radialGradient
       id="_未命名的渐变"
       data-name="未命名的渐变"
       cx="123.9"
       cy="-40.2"
       fx="123.9"
       fy="-40.2"
       r="59.4"
       gradientTransform="translate(-26.8 25.5) scale(.6 -.7)"
       gradientUnits="userSpaceOnUse"><stop
         offset="0"
         stop-color="#db202e"
         id="stop1" /><stop
         offset="1"
         stop-color="#e01b24"
         id="stop2" /></radialGradient><radialGradient
       id="_未命名的渐变_2"
       data-name="未命名的渐变 2"
       cx="67.6"
       cy="26.8"
       fx="67.6"
       fy="26.8"
       r="105.2"
       gradientTransform="translate(-26.6 25.3) scale(.6 -.7)"
       gradientUnits="userSpaceOnUse"><stop
         offset="0"
         stop-color="#ffb648"
         id="stop3" /><stop
         offset="1"
         stop-color="#ff7800"
         stop-opacity="0"
         id="stop4" /></radialGradient><radialGradient
       id="_未命名的渐变_3"
       data-name="未命名的渐变 3"
       cx="61.7"
       cy="18.6"
       fx="61.7"
       fy="18.6"
       r="68"
       gradientTransform="translate(-26.8 25.8) scale(.6 -.7)"
       gradientUnits="userSpaceOnUse"><stop
         offset="0"
         stop-color="#c64600"
         id="stop5" /><stop
         offset="1"
         stop-color="#a51d2d"
         id="stop6" /></radialGradient></defs><path
     class="st1"
     d="M 47.5,64.1 H 13.8 C 6.2,64.1 0,57.8 0,50.3 V 13.7 C 0,6.2 6.2,0 13.7,0 H 50.3 C 57.8,0 64,6.2 64,13.7 V 50.3 C 64,57.8 57.8,64 50.3,64 h -2.9 0.1 z"
     id="path6"
     style="fill:#be212e;fill-opacity:1"
     sodipodi:nodetypes="cssssssssccc" /><g
     id="g44"
     transform="matrix(4.0116959,0,0,4.0233918,-0.04678363,-0.14619883)"><path
       fill="#ffffff"
       d="M 4.6074,4 C 4.0852,4.0148 3.5817,4.2297 3.1953,4.5547 2.8026,4.8849 2.5219,5.3384 2.4648,5.8262 c -0.0285,0.2439 3e-4,0.495 0.0879,0.7265 0.0876,0.2316 0.235,0.4446 0.4317,0.6094 0.2319,0.1944 0.5226,0.3167 0.789,0.4688 0.1332,0.076 0.2588,0.161 0.3692,0.2636 C 4.2529,7.9972 4.346,8.1189 4.3965,8.2559 4.4414,8.3777 4.4517,8.5074 4.4316,8.6348 4.4116,8.7621 4.3614,8.8853 4.2871,8.9941 4.1384,9.2119 3.8978,9.3703 3.6348,9.4551 3.3296,9.5534 2.9933,9.5579 2.6992,9.6816 2.4665,9.7795 2.2705,9.9506 2.1484,10.158 c -0.122,0.208 -0.1703,0.453 -0.1406,0.688 0.0349,0.275 0.1784,0.535 0.3926,0.73 0.2141,0.195 0.4979,0.323 0.7949,0.365 C 3.6308,12.003 4.0975,11.873 4.4141,11.59 4.5724,11.448 4.6924,11.272 4.7598,11.078 4.8272,10.884 4.8387,10.674 4.7949,10.475 4.7615,10.322 4.6997,10.178 4.6387,10.033 4.5777,9.8883 4.5186,9.7408 4.5039,9.5859 4.4779,9.3126 4.5906,9.0339 4.7871,8.8281 4.9836,8.6223 5.257,8.4876 5.5469,8.4277 5.7339,8.3891 5.9303,8.3802 6.1191,8.4102 6.308,8.4401 6.4915,8.5087 6.6445,8.6152 6.7976,8.7218 6.9203,8.8657 6.9883,9.0312 7.0562,9.1968 7.0679,9.3829 7.0137,9.5527 6.9582,9.7267 6.8376,9.8766 6.7168,10.02 6.596,10.162 6.4702,10.306 6.3984,10.475 6.3193,10.661 6.311,10.871 6.3652,11.064 6.4195,11.258 6.5334,11.436 6.6836,11.58 6.8497,11.739 7.0622,11.859 7.291,11.924 7.5198,11.989 7.7527,12 7.9922,12 8.2316,12 8.4802,11.989 8.709,11.924 8.9378,11.859 9.1503,11.739 9.3164,11.58 9.4666,11.436 9.5805,11.258 9.6348,11.064 9.689,10.871 9.6807,10.661 9.6016,10.475 9.5298,10.306 9.404,10.162 9.2832,10.02 9.1624,9.8766 9.0418,9.7267 8.9863,9.5527 8.9321,9.3829 8.9438,9.1968 9.0117,9.0312 9.0797,8.8657 9.2024,8.7218 9.3555,8.6152 9.5085,8.5087 9.692,8.4401 9.8809,8.4102 10.07,8.3802 10.266,8.3891 10.453,8.4277 c 0.29,0.0599 0.563,0.1946 0.76,0.4004 0.196,0.2058 0.309,0.4845 0.283,0.7578 -0.015,0.1549 -0.074,0.3024 -0.135,0.4471 -0.061,0.145 -0.122,0.289 -0.156,0.442 -0.044,0.199 -0.032,0.409 0.035,0.603 0.068,0.194 0.188,0.37 0.346,0.512 0.317,0.283 0.783,0.413 1.219,0.351 0.297,-0.042 0.58,-0.17 0.795,-0.365 0.214,-0.195 0.357,-0.455 0.392,-0.73 0.03,-0.235 -0.018,-0.48 -0.14,-0.688 C 13.729,9.9506 13.533,9.7795 13.301,9.6816 13.007,9.5579 12.67,9.5534 12.365,9.4551 12.102,9.3703 11.862,9.2119 11.713,8.9941 11.639,8.8853 11.588,8.7621 11.568,8.6348 11.548,8.5074 11.559,8.3777 11.604,8.2559 11.654,8.1189 11.747,7.9972 11.857,7.8945 11.968,7.7919 12.093,7.7069 12.227,7.6309 12.493,7.4788 12.784,7.3565 13.016,7.1621 13.212,6.9973 13.36,6.7843 13.447,6.5527 13.535,6.3212 13.564,6.0701 13.535,5.8262 13.478,5.3384 13.197,4.8849 12.805,4.5547 12.418,4.2297 11.915,4.0148 11.393,4 11.131,3.9926 10.868,4.0351 10.627,4.1289 10.386,4.2227 10.167,4.3687 10,4.5547 9.8091,4.7679 9.6899,5.0277 9.5801,5.2852 9.4702,5.5426 9.3675,5.805 9.2012,6.0352 8.9268,6.4146 8.4939,6.7754 8,6.7754 7.5061,6.7754 7.0732,6.4146 6.7988,6.0352 6.6325,5.805 6.5298,5.5426 6.4199,5.2852 6.3101,5.0277 6.1909,4.7679 6,4.5547 5.8335,4.3687 5.6138,4.2227 5.373,4.1289 5.1323,4.0351 4.8685,3.9926 4.6074,4 Z M 8,7.5 A 0.5,0.5 0 0 1 8.5,8 0.5,0.5 0 0 1 8,8.5 0.5,0.5 0 0 1 7.5,8 0.5,0.5 0 0 1 8,7.5 Z"
       id="path1" /></g></svg>
